X: 38472
T: Steamboat, The
R: jig
M: 6/8
K: Amajor
|:a2e c2B|Ace a2a|agf edc|Bed cBA|
a2e c2B|Ace a2a|agf edc|1 cdB A2e:|2 cdB A2z||
|:Ace e2e|efe cBA|Adf f2f|fga e3|
Ace e2e|efe cBA|agf edc|edB A3:|

